X: 1431
T: An Tunnag
R: jig
M: 6/8
K: Dmajor
A,2 D DEF|E2 D DEF|E2 D DEF|E2 D EFF|
A,2 D DEF|E2 D DEF|E2 D FED|B,2 A, B,DD:|
A,2 A F2E|FDD D2E|FDD D2E|F2E FAA|
A,2A F2E|FDD D2E|F2E FED|B,2A, B,DD:|
Acc cef|e2c cef|e2c cef|e2c eff|
Acc cef|e2c cef|e2c fec|B2A Bcc:|
A2a f2 e|fea f2e|fea f2e|fea fea|
A2a f2e|fea f2e|fea fec|B2A Bcc:|

